X: 34197
T: Reel Of Rio, The
R: reel
M: 4/4
K: Gmajor
DEGA B3 d|eg g2 agef|gede gedB|AcBA GE E2|
DEGA BABd|eg g2 agef|gede gedB|1 AcBA G2 GE:|2 AcBA G3 B||
|:dg g2 ag g2|bgag edBd|eBBA GABd|gedB AGEG|
DEGA BABd|eg g2 agef|gede gedB|1 AcBA G3 B:|2 AcBA G2 GE||
P:variation of line 1:
DEGA B3 d|eg g2 agef|gedB GABd|egdB AGEG|

